icons/svg/seamark_shields/h_seamark_harbour_marina_nofacilities_night_shield.svg

<?xml version="1.0" encoding="UTF-8" standalone="no"?>
<svg
   xmlns:dc="http://purl.org/dc/elements/1.1/"
   xmlns:cc="http://creativecommons.org/ns#"
   xmlns:rdf="http://www.w3.org/1999/02/22-rdf-syntax-ns#"
   xmlns:svg="http://www.w3.org/2000/svg"
   xmlns="http://www.w3.org/2000/svg"
   xmlns:sodipodi="http://sodipodi.sourceforge.net/DTD/sodipodi-0.dtd"
   xmlns:inkscape="http://www.inkscape.org/namespaces/inkscape"
   width="32"
   height="32"
   id="svg2"
   version="1.1"
   inkscape:version="0.48.4 r9939"
   sodipodi:docname="h_seamark_harbour_night_shield.svg">
  <defs
     id="defs13">
    <inkscape:path-effect
       effect="gears"
       id="path-effect3774"
       is_visible="true"
       teeth="6"
       phi="-1.2" />
    <inkscape:path-effect
       effect="bend_path"
       id="path-effect3772"
       is_visible="false"
       bendpath="m 95.790098,316.51174 c 144.429032,-206.42506 223.313032,-11.7428 339.548092,0"
       prop_scale="1.19"
       scale_y_rel="false"
       vertical="false"
       bendpath-nodetypes="cc" />
  </defs>
  <sodipodi:namedview
     pagecolor="#ffffff"
     bordercolor="#666666"
     borderopacity="1"
     objecttolerance="10"
     gridtolerance="10"
     guidetolerance="10"
     inkscape:pageopacity="0"
     inkscape:pageshadow="2"
     inkscape:window-width="1920"
     inkscape:window-height="1004"
     id="namedview11"
     showgrid="false"
     inkscape:zoom="13.020689"
     inkscape:cx="12.933345"
     inkscape:cy="19.297075"
     inkscape:window-x="1680"
     inkscape:window-y="0"
     inkscape:window-maximized="1"
     inkscape:current-layer="svg2" />
  <metadata
     id="metadata2975">image/svg+xmlen<rdf:RDF>
  <cc:Work
     rdf:about="">
    <dc:format>image/svg+xml</dc:format>
    <dc:type
       rdf:resource="http://purl.org/dc/dcmitype/StillImage" />
    <dc:title></dc:title>
  </cc:Work>
</rdf:RDF>
</metadata>
  <path
     sodipodi:type="inkscape:offset"
     inkscape:radius="1.8472161"
     inkscape:original="M 18.46875 3.25 C 16.165936 9.3163491 16.019759 15.947588 17.03125 22.90625 C 18.723095 18.672316 22.683469 19.32585 26.125 21 C 25.367654 20.377417 19.972171 14.665644 18.46875 3.25 z M 18.09375 4.25 C 1.1328631 6.01365 6.8153356 21.048322 8.875 21.8125 C 7.5297203 17.995271 11.794884 16.648924 15.59375 20.5 C 15.59375 20.5 12.28701 8.7139041 18.09375 4.25 z M 4.25 21.53125 C 6.4740024 27.759722 13.263186 27.125 15.09375 27.125 C 19.154759 27.125 25.951788 26.095062 27.71875 24.15625 L 4.25 21.53125 z "
     style="fill:#fefefe;fill-opacity:1;opacity:0.75746268000000005;color:#000000;fill-rule:nonzero;stroke:none;stroke-width:1.33818841000000011;marker:none;visibility:visible;display:inline;overflow:visible;enable-background:accumulate"
     id="path3802"
     d="M 18.34375,1.40625 A 1.8474009,1.8474009 0 0 0 16.75,2.59375 c -0.01177,0.03101 -0.01958,0.062716 -0.03125,0.09375 -3.829318,0.5871714 -6.7935037,1.799298 -8.75,3.59375 -2.1778517,1.997474 -3.2096523,4.549154 -3.46875,6.9375 -0.2590977,2.388346 0.1712008,4.629117 0.8125,6.40625 0.022633,0.06272 0.070599,0.09472 0.09375,0.15625 L 4.46875,19.6875 A 1.8474009,1.8474009 0 0 0 2.5,22.15625 c 1.3188595,3.693557 4.2272211,5.554175 6.8125,6.28125 2.585279,0.727075 5.079467,0.53125 5.78125,0.53125 2.186666,0 4.959846,-0.251839 7.53125,-0.78125 2.571404,-0.529411 4.900655,-1.060646 6.46875,-2.78125 A 1.8474009,1.8474009 0 0 0 27.9375,22.3125 L 27.46875,22.25 A 1.8474009,1.8474009 0 0 0 27.3125,19.5625 c 0.04984,0.04097 -0.456023,-0.431223 -1.03125,-1.15625 -0.575227,-0.725027 -1.329247,-1.750731 -2.09375,-3.125 C 22.658494,12.532712 21.032067,8.4637509 20.3125,3 A 1.8474009,1.8474009 0 0 0 18.34375,1.40625 z M 10.75,20.0625 c 0.273577,-0.06622 0.962083,0.128549 1.78125,0.53125 l -2,-0.21875 c 0.0063,-0.02324 -0.03626,-0.145059 -0.03125,-0.15625 0.0308,-0.06876 0.02227,-0.101125 0.25,-0.15625 z" />
</svg>

<svg width="32" height="32" viewBox="0 0 32 32" fill="none" xmlns="http://www.w3.org/2000/svg">
<path opacity="0.757463" d="M18.3437 1.40624C17.9925 1.4317 17.6559 1.55701 17.3736 1.7674C17.0912 1.97779 16.8749 2.26449 16.75 2.59374C16.7382 2.62475 16.7304 2.65645 16.7187 2.68749C12.8894 3.27466 9.92525 4.48679 7.96875 6.28124C5.7909 8.27871 4.7591 10.8304 4.5 13.2187C4.2409 15.6071 4.6712 17.8479 5.3125 19.625C5.33513 19.6877 5.3831 19.7197 5.40625 19.7812L4.46875 19.6875C4.15404 19.6472 3.83426 19.6887 3.54023 19.8079C3.2462 19.9271 2.98783 20.1201 2.79001 20.3681C2.59219 20.6162 2.46159 20.911 2.4108 21.2242C2.36 21.5374 2.39072 21.8584 2.5 22.1562C3.81886 25.8498 6.72722 27.7104 9.3125 28.4375C11.8978 29.1646 14.392 28.9687 15.0937 28.9687C17.2804 28.9687 20.0536 28.7169 22.625 28.1875C25.1964 27.6581 27.5257 27.1268 29.0938 25.4062C29.3269 25.1551 29.4856 24.844 29.5522 24.5078C29.6187 24.1716 29.5903 23.8236 29.4704 23.5025C29.3504 23.1815 29.1435 22.9002 28.8728 22.69C28.6021 22.4799 28.2782 22.3491 27.9375 22.3125L27.4688 22.25C27.6422 22.0669 27.7763 21.8502 27.8628 21.6133C27.9493 21.3764 27.9863 21.1242 27.9717 20.8725C27.9571 20.6207 27.891 20.3746 27.7776 20.1493C27.6643 19.924 27.506 19.7243 27.3125 19.5625C27.3623 19.6035 26.8565 19.1313 26.2812 18.4062C25.706 17.6812 24.952 16.6555 24.1875 15.2812C22.6585 12.5327 21.0321 8.46374 20.3125 2.99999C20.2492 2.5335 20.0102 2.10879 19.6443 1.81258C19.2784 1.51638 18.8132 1.37104 18.3437 1.40624V1.40624ZM10.75 20.0625C11.0236 19.9963 11.7121 20.191 12.5312 20.5937L10.5312 20.375C10.5375 20.3517 10.495 20.2299 10.5 20.2187C10.5308 20.15 10.5223 20.1176 10.75 20.0625Z" fill="#FEFEFE"/>
</svg>
